web/themes/quartiers_solidaires/assets/icons/arrow.svg

<?xml version="1.0" encoding="UTF-8"?>
<svg width="50px" height="50px" viewBox="0 0 50 50" version="1.1" xmlns="http://www.w3.org/2000/svg" xmlns:xlink="http://www.w3.org/1999/xlink">
      <path d="M46.886,26.0705 C46.889,26.0625 46.89,26.0545 46.893,26.0475 C46.96,25.8775 47,25.6945 47,25.5005 L47,25.4995 C47,25.3065 46.96,25.1225 46.893,24.9535 C46.89,24.9455 46.889,24.9375 46.886,24.9295 C46.81,24.7455 46.699,24.5785 46.56,24.4395 L26.56,4.4395 C25.975,3.8535 25.025,3.8535 24.439,4.4395 C23.853,5.0255 23.853,5.9745 24.439,6.5605 L41.879,24.0005 L5.5,24.0005 C4.672,24.0005 4,24.6725 4,25.5005 C4,26.3285 4.672,27.0005 5.5,27.0005 L41.879,27.0005 L24.439,44.4395 C23.853,45.0255 23.853,45.9745 24.439,46.5605 C24.732,46.8535 25.116,47.0005 25.5,47.0005 C25.884,47.0005 26.267,46.8535 26.56,46.5605 L46.56,26.5615 C46.699,26.4225 46.81,26.2555 46.886,26.0705" id="Fill-1" fill="currentColor"></path>

</svg>

<svg viewBox="0 0 50 50" xmlns="http://www.w3.org/2000/svg">
  <path d="M46.886 26.07l.007-.023c.067-.17.107-.352.107-.547 0-.194-.04-.378-.107-.547l-.007-.023a1.507 1.507 0 0 0-.326-.49l-20-20a1.5 1.5 0 1 0-2.121 2.12L41.879 24H5.5a1.5 1.5 0 0 0 0 3h36.379l-17.44 17.44a1.5 1.5 0 1 0 2.121 2.12l20-19.999a1.5 1.5 0 0 0 .326-.49" fill="currentColor"/>
</svg>
